X: 062
T: Sundrum House, a Reel
C: attr. John French (1753-1803)
R: reel
B: "John French Collection", John French ed. p.6 #2
S: http://www.heallan.com/french.asp
Z: 2012 John Chambers <jc:trillian.mit.edu>
M: C
L: 1/8
K: Ador
F | EAcA  EAcA  | BGdB gdcB | cege dcBd | cedB  cA-A :|
e | abae (ab)ag | egdg Bdgb | agef gdBg | ecBe  cA-A ||
e | abae (ab)ag | egdg Bdgb | agea gedB | cdB^g aA-A |]

%%sep 2 1 500
%%sep 1 1 500

